src/scalable/apps/kalgebra.svg

<svg width="64" height="64" version="1.1" xmlns="http://www.w3.org/2000/svg">
 <circle cx="32" cy="32" r="27" fill="#44484c" stroke-width="3.7796" style="paint-order:stroke fill markers"/>
 <circle cx="32" cy="32" r="24" fill="#f2efe6" stroke-width="3.3596" style="paint-order:stroke fill markers"/>
 <g transform="matrix(.74074 0 0 1 5.2963 .0268)">
  <path transform="matrix(1.35 0 0 1 -7.15 -.0268)" d="m17 13.271a24 24 0 0 0-1 0.87891v35.703a24 24 0 0 0 1 0.85352v-37.436z" fill="#da4453" opacity=".4" stroke-width=".86066"/>
 </g>
 <path d="m15.078 15a24 24 0 0 0-0.93164 1h35.703a24 24 0 0 0-0.93359-1h-33.838z" fill="#007ad9" opacity=".4" stroke-width=".86066"/>
 <path d="m21.2 18.5v2.7h0.0108l6.1992 10.731-6.21 10.753v2.8161h21.6v-5.4h-2.7v2.7h-15.846l6.2721-10.867v-0.0027l-6.1965-10.731h13.071v1.35h2.7v-4.05h-17.329z" fill="#bdb49e"/>
</svg>

<svg width="64" height="64" xmlns="http://www.w3.org/2000/svg"><circle cx="32" cy="32" r="27" fill="#44484c" style="paint-order:stroke fill markers"/><circle cx="32" cy="32" r="24" fill="#f2efe6" style="paint-order:stroke fill markers"/><path d="M17 13.271a24 24 0 0 0-1 .879v35.703a24 24 0 0 0 1 .853V13.27z" fill="#da4453" opacity=".4"/><path d="M15.078 15a24 24 0 0 0-.932 1H49.85a24 24 0 0 0-.933-1H15.078z" fill="#007ad9" opacity=".4"/><path d="M21.2 18.5v2.7h.01l6.2 10.731-6.21 10.753V45.5h21.6v-5.4h-2.7v2.7H24.254l6.272-10.867v-.003L24.33 21.2H37.4v1.35h2.7V18.5H22.773z" fill="#bdb49e"/></svg>
